X: 3
T: Snowy Monday
C: Willie Taylor
C: (2nd part by Katherine Tickell)
R: Jig
M: 6/8
L: 1/8
K: D
V: melody
A|:"D" F>GA D2F|A>dd f>dd|"G" G>AB "D" A>dd|A>gf "A" e2A|
"D" F>GA D2F|A>dd f>dd|"G" G>AB "A" A>ae|1 "D" f>ed d2A:|2 "D" f>ed d>fg||
"D" a>fd f>ed|"G" B>GB d>cB|"D" A>BA d>ef|A>af "A" e>fg|
"D" a>fd f>ed|"G" B>GB d>cB|"D" A>dd "A" c>ae|"D" f>ed d>fg|
"D" a>fd f>ed|"G" B>GB d>cB|"D" A>BA d>ef|A>af "A" e2A|
"D" F>GA D2F|A>dd f>dd|"G" G>AB "A" A>ae|"D" f>ed d2||
V: harmony
F|:D>EF A,2D|F>AA d2A|D>GG F>AA|A>dA G>FE|
D>EF A,2D|F>AA d>AA|B>AB c>Bc|1 d>AF D2F:|2 d>AF D2c||
d>AF A>GF|G>DG B>AG|F>GF A>Bc|d>Ad c3|
d>AF A>GF|G>DG B>AG|F>AA E>Ac|d>AF D2c|
d>AF A>GF|G>DG B>AG|F>GF A>Bc|D>AF G>FE|
D>EF A,2D|F>AA D>AA|B>AB c>Bc|d>AF D2||

